public/img/clients/dundee.svg

<svg xmlns="http://www.w3.org/2000/svg" focusable="false" role="img" viewBox="0 0 200 100" fill="currentColor">
  <g fill-rule="evenodd" clip-path="url(#clip0_2:167)" clip-rule="evenodd">
    <path d="M66.662 28.465c33.432 0 61.503 9.035 69.328 21.242l-.01-34.758C123.914 6.116 100.22.11 72.966.11l-7.714-.14v28.5c.47-.004.938-.007 1.41-.007v.002zm35.14 52.675H136l-.006-17.618c-4.832 7.546-17.4 13.88-34.192 17.618zM65.266 91.878c0-1.162-.273-1.417-1.368-1.4v-.43c.418 0 1.656-.064 2.26-.096.78-.032 1.514-.032 2.06-.032 2.176 0 3.745.43 4.624 1.4.893.988 1.24 2.2 1.24 3.393 0 2.34-1.485 5.238-5.705 5.238h-4.48v-.43c1.225 0 1.37-.222 1.37-1.288v-6.354l-.001-.001zm1.6 6.48c0 1.004.13 1.147 1.065 1.147 1.73 0 2.622-.414 3.285-1.146.878-.972 1.123-2.31 1.123-3.424 0-1.147-.23-2.437-1.11-3.408-.72-.796-1.627-1.162-3.312-1.162-.244 0-.69 0-1.05.032v7.96l-.001.001zm10.211-8.311h4.09v.43c-1.066 0-1.267.255-1.267 1.37v4.283c0 2.118 1.28 3.09 3.082 3.09 1.598 0 3.096-.765 3.096-3.122v-4.25c0-1.243-.216-1.37-1.382-1.37v-.43h3.485v.43c-1.094 0-1.31.254-1.31 1.37v4.425c0 2.5-1.742 3.933-4.364 3.933-2.736 0-4.205-1.45-4.205-4.044v-4.475c0-.97-.23-1.21-1.223-1.21v-.43h-.002zm15.653 1.8v6.114c0 1.243.144 1.64 1.44 1.56v.43h-3.442v-.43c1.037.033 1.21-.333 1.21-1.368v-7.165c-.346-.335-.663-.462-1.21-.51v-.43h2.607l6.423 7.5v-5.7c0-1.195-.172-1.386-1.425-1.37v-.43h3.485v.43c-.965 0-1.267.19-1.267 1.4v8.17h-.777l-7.043-8.2-.001-.001zm13.314.031c0-1.162-.273-1.417-1.368-1.4v-.43c.418 0 1.656-.064 2.26-.096.78-.032 1.513-.032 2.06-.032 2.176 0 3.745.43 4.624 1.4.893.988 1.24 2.2 1.24 3.393 0 2.34-1.485 5.238-5.705 5.238h-4.48v-.43c1.225 0 1.37-.222 1.37-1.288v-6.354l-.001-.001zm1.6 6.48c0 1.004.128 1.147 1.065 1.147 1.727 0 2.62-.414 3.282-1.146.88-.972 1.124-2.31 1.124-3.424 0-1.147-.23-2.437-1.11-3.408-.72-.796-1.627-1.162-3.312-1.162-.245 0-.69 0-1.05.032v7.96l.001.001zm10.009 1.592v-.43c1.167 0 1.455-.206 1.455-1.097V91.56c0-1.05-.476-1.083-1.455-1.083v-.43h7.36l.13 2.39h-.39l-.072-.336c-.287-1.304-.517-1.336-1.44-1.336h-2.534v3.71h2.233c.834 0 .992-.112 1.08-1.21h.388v3.2h-.39c-.1-1.13-.287-1.274-1.08-1.274h-2.232v2.898c0 .987.116 1.147.85 1.147h1.6c1.453 0 1.74-.223 2.13-1.784h.39l-.217 2.5h-7.807l.001-.002zm11.032 0v-.43c1.167 0 1.455-.206 1.455-1.097V91.56c0-1.05-.475-1.083-1.455-1.083v-.43h7.36l.13 2.39h-.39l-.07-.336c-.29-1.304-.52-1.336-1.44-1.336h-2.536v3.71h2.23c.836 0 .995-.112 1.08-1.21h.39v3.2h-.39c-.1-1.13-.287-1.274-1.08-1.274h-2.23v2.898c0 .987.114 1.147.848 1.147h1.6c1.454 0 1.742-.223 2.13-1.784h.39l-.216 2.5h-7.807l.001-.002z"/>
    <path d="M65.252 81.136c.47.008.937.02 1.41.02 25.284 0 45.78-10.97 45.78-24.682 0-13.71-20.496-24.682-45.78-24.682-.473 0-.94.012-1.41.02v49.324z"/>
  </g>
  <defs>
    <clipPath id="clip0_2:167">
      <path d="M0 0h200v100H0z"/>
    </clipPath>
  </defs>
</svg>

<svg width="200" height="100" viewBox="0 0 200 100" fill="none" xmlns="http://www.w3.org/2000/svg">
<g clip-path="url(#clip0_2:167)">
<path fill-rule="evenodd" clip-rule="evenodd" d="M66.662 28.465C100.094 28.465 128.165 37.5 135.99 49.707L135.98 14.949C123.914 6.11597 100.22 0.109971 72.966 0.109971L65.252 -0.0300293V28.47C65.722 28.466 66.19 28.463 66.662 28.463V28.465ZM101.802 81.14H136L135.994 63.522C131.162 71.068 118.594 77.402 101.802 81.14ZM65.266 91.878C65.266 90.716 64.993 90.461 63.898 90.478V90.048C64.316 90.048 65.554 89.984 66.158 89.952C66.938 89.92 67.672 89.92 68.218 89.92C70.394 89.92 71.963 90.35 72.842 91.32C73.735 92.308 74.082 93.52 74.082 94.713C74.082 97.053 72.597 99.951 68.377 99.951H63.897V99.521C65.122 99.521 65.267 99.299 65.267 98.233V91.879L65.266 91.878ZM66.866 98.358C66.866 99.362 66.996 99.505 67.931 99.505C69.661 99.505 70.553 99.091 71.216 98.359C72.094 97.387 72.339 96.049 72.339 94.935C72.339 93.788 72.109 92.498 71.229 91.527C70.509 90.731 69.602 90.365 67.917 90.365C67.673 90.365 67.227 90.365 66.867 90.397V98.357L66.866 98.358ZM77.077 90.047H81.167V90.477C80.101 90.477 79.9 90.732 79.9 91.847V96.13C79.9 98.248 81.18 99.22 82.982 99.22C84.58 99.22 86.078 98.455 86.078 96.098V91.848C86.078 90.605 85.862 90.478 84.696 90.478V90.048H88.181V90.478C87.087 90.478 86.871 90.732 86.871 91.848V96.273C86.871 98.773 85.129 100.206 82.507 100.206C79.771 100.206 78.302 98.756 78.302 96.162V91.687C78.302 90.717 78.072 90.477 77.079 90.477V90.047H77.077ZM92.73 91.847V97.961C92.73 99.204 92.874 99.601 94.17 99.521V99.951H90.728V99.521C91.765 99.554 91.938 99.188 91.938 98.153V90.988C91.592 90.653 91.275 90.526 90.728 90.478V90.048H93.335L99.758 97.548V91.848C99.758 90.653 99.586 90.462 98.333 90.478V90.048H101.818V90.478C100.853 90.478 100.551 90.668 100.551 91.878V100.048H99.774L92.731 91.848L92.73 91.847ZM106.044 91.878C106.044 90.716 105.771 90.461 104.676 90.478V90.048C105.094 90.048 106.332 89.984 106.936 89.952C107.716 89.92 108.449 89.92 108.996 89.92C111.172 89.92 112.741 90.35 113.62 91.32C114.513 92.308 114.86 93.52 114.86 94.713C114.86 97.053 113.375 99.951 109.155 99.951H104.675V99.521C105.9 99.521 106.045 99.299 106.045 98.233V91.879L106.044 91.878ZM107.644 98.358C107.644 99.362 107.772 99.505 108.709 99.505C110.436 99.505 111.329 99.091 111.991 98.359C112.871 97.387 113.115 96.049 113.115 94.935C113.115 93.788 112.885 92.498 112.005 91.527C111.285 90.731 110.378 90.365 108.693 90.365C108.448 90.365 108.003 90.365 107.643 90.397V98.357L107.644 98.358ZM117.653 99.95V99.52C118.82 99.52 119.108 99.314 119.108 98.423V91.56C119.108 90.51 118.632 90.477 117.653 90.477V90.047H125.013L125.143 92.437H124.753L124.681 92.101C124.394 90.797 124.164 90.765 123.241 90.765H120.707V94.475H122.94C123.774 94.475 123.932 94.363 124.02 93.265H124.408V96.465H124.018C123.918 95.335 123.731 95.191 122.938 95.191H120.706V98.089C120.706 99.076 120.822 99.236 121.556 99.236H123.156C124.609 99.236 124.896 99.013 125.286 97.452H125.676L125.459 99.952H117.652L117.653 99.95ZM128.685 99.95V99.52C129.852 99.52 130.14 99.314 130.14 98.423V91.56C130.14 90.51 129.665 90.477 128.685 90.477V90.047H136.045L136.175 92.437H135.785L135.715 92.101C135.425 90.797 135.195 90.765 134.275 90.765H131.739V94.475H133.969C134.805 94.475 134.964 94.363 135.049 93.265H135.439V96.465H135.049C134.949 95.335 134.762 95.191 133.969 95.191H131.739V98.089C131.739 99.076 131.853 99.236 132.587 99.236H134.187C135.641 99.236 135.929 99.013 136.317 97.452H136.707L136.491 99.952H128.684L128.685 99.95Z" fill="black"/>
<path fill-rule="evenodd" clip-rule="evenodd" d="M65.252 81.136C65.722 81.144 66.189 81.156 66.662 81.156C91.946 81.156 112.442 70.186 112.442 56.474C112.442 42.764 91.946 31.792 66.662 31.792C66.189 31.792 65.722 31.804 65.252 31.812V81.136Z" fill="black"/>
</g>
<defs>
<clipPath id="clip0_2:167">
<rect width="200" height="100" fill="white"/>
</clipPath>
</defs>
</svg>
